X: 1
T: Kiely's
M: 12/8
L: 1/8
R: slide
K: Dmaj
d2e fed e2A ABA|def a2a g2g f2e|
d2e fed e2A ABA|1 ~a3 gfe ~d3 dBc:|2 ~a3 gfe ~d3 dge||
|:~f3 fef ~g3 gfe|~f3 fed efe d2e|
~f3 fef ~g3 gfg|1 a2f gfe ~d3 dge:|2 a2f gfe ~d3 dBc||
